X: 4368
T: TARENTELLE FROM "MASANIELLO."
R: Tarantella
%R: tarantella, jig
B: James Kerr "Merry Melodies" v.4 p.39 #368
Z: 2016 John Chambers <jc:trillian.mit.edu>
H: From the score for Daniel Auber's 1828 opera "La muette de Portici", aka "Masaniello".
M: 6/8
L: 1/8
K: Em	% and G
efg |\
gab bc'd' | d'c'b bag | gfe efg | f^dB efg |\
gab bc'd' | d'c'b bag | gfe efg | f2z :|
|: gag |\
^cdc fgf | BcB efe | ^dfe def | gfe gag |\
^cdc fgf | BcB efe | ^dfe def | e2z :|
|: g2(g |\
B2)(B d)(d | G3) d2d | edc edc | B2G g2(g |\
B2)(B d)d | G3 d2d |[1 ed^c edc | B2 :|[2 edc fed | g2"_D.C."z |]

%%sep 1 1 500
%%sep 1 1 500

